X:243
T: Lass with the Rowling Eye
N: O'Farrell's Pocket Companion v.3 (Sky ed. p.116)
N: "Irish"
M: 3/4
L: 1/8
R: waltz
Q: 220 % "brisk"
K: G
FE DF A2| EAAE G2| FEDF A>c| BG AG/F/ G2 :|
GB/c/ dBcA| BGAG F2| GddB cA| BG A/c/A/F/ G2|
GB/c/ dBcA| BGAG F>A| Gggd ec| BG AG/F/ G2 ||
